X:1
T:Communion Service in C
T:C. V. Stanford
T:Communion Service in C
C:C. V. Stanford
%%score [ ( 1 2 ) ( 3 4 ) ] { ( 5 7 ) | ( 6 8 9 ) }
L:1/8
M:4/4
K:C
V:1 treble nm="P1" snm="S A"
V:2 treble 
V:3 bass nm="P2" snm="T B"
V:4 bass 
V:5 treble nm="P3" snm="Org."
V:7 treble 
V:6 bass 
V:8 bass 
V:9 bass 
V:1
"^Slow"!p! z8 | c3 c d2 e2 | A2 A2 z2 (AB | c2) B2 A3 G | A6 A2 | G4 z4 | z8 |!mf! c4 d2 e2 | %8
w: |Ky- ri- e e-|lei- son, ky- *|* ri- e e-|le- i-|son.||Chri- ste e-|
 A2 A2 z2 (AB | c2 B2) A3 G | A6 A2 | G4 z4 |!p! z8 | c3 c d2 e2 | A2 A2 z2 (A2 | %15
w: lei- son, Chri- *|* * ste e-|lei- i-|son.||Ky- ri- e e-|lei- son, Ky-|
!<(! G2) A2 B2 c2!<)! | f4 e4 | (e4 d4) |!>(! z2 (e4 c2) | c4!>)! A4 | c8 |] %21
w: * ri- e e-|le- i-|son, *|e- *|le- i-|son.|
V:2
 x8 | A3 A A2 A2 | G2 F2 x2 (F2 | E2) E2 F3 G | (G4 F2) F2 | E4 x4 | x8 | A4 A2 A2 | G2 F2 x2 (F2 | %9
 E4) F3 G | (G4 F2) F2 | E4 x4 | x8 | E2 F2 F2 E2 | E2 D2 x2 (E2 | D2) G2 F2 E2 | F4 G4 | A8 | %18
 x2 G6 | G4 F4 | G8 |] %21
V:3
 z8 | E3 E A,2 (CE) | E2 D2 z2 (D2 | C2) C2 C3 C | C6 C2 | C4 z4 | z8 | E4 A,2 (CE) | %8
 E2 D2 z2 (D2 | C4) C3 C | C6 C2 | C4 z4 | z8 | C3 C B,2 B,2 | A,2 A,2 z2 (C2 | B,2) C2 D2 E2 | %16
 C4 C4 | C8 |!>(! z2 (C4 B,2) | A,4 (C2 D2)!>)! | E8 |] %21
V:4
 x8 | A,3 G, F,2 (E,C,) | D,2 D,2 x2 (D,2 | A,2) G,2 F,3 E, | (F,4 A,,2) A,,2 | C,4 x4 | x8 | %7
 A,4 F,2 (E,C,) | D,2 D,2 x2 (D,2 | A,2 G,2) F,3 E, | (F,4 A,,2) A,,2 | C,4 x4 | x8 | %13
 A,3 A, G,2 G,2 | F,2 F,2 x2 (F,2 | F,2) E,2 D,2 C,2 | A,4 G,4 | F,8 | x2 E,6 | F,8 | C,8 |] %21
V:5
!p! [Ac]8 | E2 z2 z4 | z2 A4- AB | c z z2 z4 | z4 z2 F2 | [EG]4 E4 | F2 G2 A2 B2 | [Ec]2 z2 z4 | %8
!mf! z2 A4- AB | c z z2 z4 | z4 z2 F2 | [EG]4!p! E4 | F2 G2 A2 B2 | c4 d2 e2 | A4 F2 E2 | %15
!<(! [B,D]2 [CG]2 [DF]2 E2!<)! | F2- [Fc-]2 [Ec]2 [Ge]2 | e4 d4 | e6 c2 | c4 A4 | [Gc]8 |] %21
V:6
 [A,E]8 | E,2 z2 z4 | z2 D6 | C z z2 z4 | z4 z2 [A,C-]2 | [G,C]4 C2 B,2 | C8 | [A,C]2 z2 z4 | %8
 z2 D6 | C z z2 z4 | z4 z2 [A,C]2 | [G,C]4 C2 B,2 | C8 | C4 B,4 | A,4 F,4 | G,2 A,2 B,2 C2 | %16
 [A,C]4 [G,C]4 | [F,A,C]8 | C6 B,2 | A,4 C2 D2 | [G,CE]8 |] %21
V:7
 x8 | C2 x6 | x2 F6 | E x7 | x8 | x8 | x4 F4 | x8 | x2 F6 | E x7 | x8 | x8 | x4 F4 | E2 F4 E2- | %14
 E2 D2 C4 | x8 | x8 | A8 | G8- | G4 F4 | x8 |] %21
V:8
 x8 | A,,2 x6 | x2 D,2 F,2 D,2 | A, x7 | z2 F,2 A,,4 | C,4 x4 | A,2 G,2 F,2 G,2 | x8 | %8
 x2 D,2 F,2 D,2 | A, x7 | z2 F,2 A,,4 | C,4 z4 | A,2 G,2 F,2 G,2 | A,4 G,4 | F,4 D,4 | %15
 F,2 E,2 D,2 C,2 | A,,4 G,,4 | F,,8 | E,,8 | F,,8 | C,,8 |] %21
V:9
 x8 | x8 | x8 | x8 | x8 | x8 | x8 | x8 | x8 | x8 | x8 | x8 | x8 | x8 | x8 | G,8 | x8 | x8 | %18
 [E,G,]8 | [F,A,]8 | x8 |] %21

